X: 38
T: Adalar Sahilinde Bekliyorum
C: ?
O: Turkey
F: http://compmusic.upf.edu/node/140
N: hicaz--kanto--sofyan--ada_sahillerinde--
N: makam= hicaz
N: form= kanto
N: usul= sofyan = 4/4
M: 4/4
L: 1/16
K: C _7/8B ^f ^c 
Q: 1/4=78
%%MIDI tuningsystem comma53
A4 g2a2 a4 a4  | {z}g2a=b a2g2 f2ef g2{a}gf  | \
w:  ARANAĞME  |   | 
{z}e4 e2f2 g2a2 gfe2  | 
w:   | 
f2g2 fed2 e2fe agfe  | {z}d4 e2=f2 f4 f4  | \
w:   |   | 
e2=fg fed2 c2d2 efed  | 
w:   | 
{z}c4 c2d2 e3d d3c  | c3B A2B2 c2d2 cBB{z}A  | \
w:   |   | 
A4 g2a2 a4 a4  | 
w:  ARANAĞME  | 
{z}g2a=b a2g2 f2ef g2{a}gf  | {z}e4 e2f2 g2a2 gfe2  | \
w:   |   | 
f2g2 fed2 e2fe agfe  | 
w:   | 
{z}d4 e2=f2 f4 f4  | e2=fg fed2 c2d2 efed  | \
w:   |   | 
{z}c4 c2d2 e3d d3c  | 
w:   | 
c3B A2B2 c2d2 cBB{z}A  | A2a14  | a4 {z}g2a2 a4 a4  | \
w:   |  *  Ah   |  *  A da lar  sa  | 
aga=b a2g2 f2fe g2{a}gf  | 
w:  hi *  lin *  *  de  bek *  *  li *  yo  | 
e4 {z}e2f2 g2a2 gfe2  | f2ga g=fed e2f2 agfe  | 
w:  rum   Se ni  yâ *  rim   |  se ri *  *  *  an  *  is *  ti *  yo  | 
d4 {z}e2=f2 f2{g}fe f4  | {z}e2=fg fed2 c2d2 e/d/e/f/ed  | 
w:  rum   Her  za man *  *  *  ki   |  ye rim *  *  *  de  bek *  li *  *  *  yo  | 
.c4 {z}c2d2 _7/8e3d d3c  | c3B A2B2 c2d2 edcB  | \
w:  rum   Be ni  şâd_ *  et   |  Şâ *  di ye  ba *  şın  *  i  | 
A8 z8  | {z}A4 g2a2 a4 a4  | 
w:  çin    |  ARANAĞME  | 
{z}g2a=b a2g2 f2ef g2{a}gf  | {z}e4 e2f2 g2a2 gfe2  | \
w:   |   | 
f2g2 fed2 e2fe agfe  | 
w:   | 
{z}d4 e2=f2 f4 f4  | e2=fg fed2 c2d2 efed  | \
w:   |   | 
{z}c4 c2d2 e3d d3c  | 
w:   | 
c3B A2B2 c2d2 cBB{z}A  | A4 g2a2 a4 a4  | \
w:   |  ARANAĞME  | 
{z}g2a=b a2g2 f2ef g2{a}gf  | 
w:   | 
{z}e4 e2f2 g2a2 gfe2  | f2g2 fed2 e2fe agfe  | \
w:   |   | 
{z}d4 e2=f2 f4 f4  | 
w:   | 
e2=fg fed2 c2d2 efed  | {z}c4 c2d2 e3d d3c  | \
w:   |   | 
c3B A2B2 c2d2 cBB{z}A  | 
w:   | 
A2a14  | a4 {z}g2a2 a4 a4  | aga=b a2g2 f2fe g2{a}gf  | \
w:  *  Ah   |  *  A da lar  sa  |  hi *  lin *  *  de  bek *  *  li *  yo  | 
e4 {z}e2f2 g2a2 gfe2  | 
w:  rum   Se ni  yâ *  rim   | 
f2ga g=fed e2f2 agfe  | d4 {z}e2=f2 f2{g}fe f4  | \
w:  se ri *  *  *  an  *  is *  ti *  yo  |  rum   Her  za man *  *  *  ki   | 
{z}e2=fg fed2 c2d2 e/d/e/f/ed  | 
w:  ye rim *  *  *  de  bek *  li *  *  *  yo  | 
.c4 {z}c2d2 _7/8e3d d3c  | c3B A2B2 c2d2 edcB  | \
w:  rum   Be ni  şâd_ *  et   |  Şâ *  di ye  ba *  şın  *  i  | 
A8 z8  | |


